X:1
T:Mes pas semés
T:Jean de Castro
T:Source : La fleur des chansons à 3---Louvain---P.Phalèse---1574. Editor : André Vierendeels (07/09/18) Notes : Original clefs : G2, C2, C3 Original note values have been halved Editorial accidentals above the staff Square bracket indicates ligature
T:Mes pas semés
T:©
T:©
T:©
T:©
C:Jean de Castro
Z:©
%%score [ 1 2 3 ]
L:1/8
Q:1/4=120
M:2/2
K:C
V:1 treble nm="Soprano" snm="S"
V:2 treble nm="Alto" snm="A"
V:3 treble-8 nm="Tenor" snm="T"
V:1
 z4 G2 A2 | B2 ^c2 z d e2 | ^f2 g2 z2 d2 | gfed cBAG | FE D2 z2 C2 | c3 B/c/ d c2 B | c4 z2 d2 | %7
w: Mes pas|se- més, mes pas|se- més et|loing, _ _ _ _ _ _ _|_ _ _ et|loing _ _ _ _ al-|lés par|
 efgg e2 d2 | cB/A/GG AccB | cdef g2 e2 | c2 z c c2 c2 | d6 c2 | B2 c3 B/A/ B2 | c2 G4 E2 | %14
w: di- vers so- li- tai- res|lieux, _ _ _ par di- vers so- li-|tai- * * * * res|lieux, sont de pen-|sers en-|tre- mel- * * *|lés, qui ren-|
 G2 A2 G3 F/E/ | D4 C2 c2 | d2 f3 eed/c/ | d2 d2 e4 | z2 e2 g2 c2 | edfe gf/e/ d2 | e2 z c defd | %21
w: dent hu- mi- * *|* des, hu-|mi- des _ _ _ _|_ mes yeux,|et tant plus|i'ay ma voix hau- cé- * * *|e, tant moins ie me sens|
 cB A2 B2 z B | cAGg c2 f2 | ecBA Bd G2- | G c2 A z GAB | c2 z B c3 G | A2 c2 z2 g2 | %27
w: ex- au- cé- e, et|si ne sçay, et si ne|sçay quand i'au- ray mieux, et si|_ ne sçay quand i'au- ray|mieux, et si _|ne sçay, et|
 c2 f2 e2 d2- | d2 c4 B2 | c8 |] %30
w: si ne sçay quand|_ i'au- ray|mieux.|
V:2
 C2 D2 E2 F2 | D E2 ^F2 G z c | A2 z G A2 B2 | c2 c2 AGFE | DCB,A, G,2 G2 | E2 E2 F2 D2 | %6
w: Mes pas se- més,|mes pas se- més, mes|pas, mes pas se-|més et loing _ _ _|_ _ _ _ _ al-|lés, et loing al-|
 EGAc BA B2 | A2 GG AcBB | AD E2 z CDD | EF G2 C2 G2 | z2 F2 E2 E2 | G4 A4 | G3 F/E/ D2 D2 | %13
w: lés, par di- vers so- li- tai-|res lieux, par di- vers so- li-|tai- res lieux, par di- vers|so- li- tai- res lieux,|sont de pen-|sers en-|tre- * * * mel-|
 E4 z2 G2 | E2 C3 D E2 | z2 G2 A4 | D2 A3 B c2- | cB/A/ B2 c4 | z2 c2 B2 A2 | GBcA Bc3/2B/4A/4B | %20
w: lés, qui|ren- dent _ _|hu- mi-|des mes _ _|_ _ _ _ yeux,|et tant plus|i'ay ma voix hau- cé- * * * *|
 A2 A2 GCDD | AG ^F2 G4 | z2 z G A2 A2 | cGGF G2 z G | C2 F2 E2 z D | C2 D2 EG C2- | CF E2 z2 E2 | %27
w: e, tant moins ie me sens|ex- au- cé- e,|et si ne|sçay quand i'au- ray mieux, et|si ne sçay quand|i'au- ray mieux, et si|_ ne sçay, et|
 A2 A2 G3 F/E/ | D2 E2 D2 D2 | E8 |] %30
w: si ne sçay _ _|_ quand i'au- ray|mieux.|
V:3
 z8 | G2 A2 B2 c2 | z d e2 ^f2 g2 | z8 | z2 G2 gfed | cBAG F2 G2 | c2 z c efgg | cd e2 z2 z G | %8
w: |Mes pas se- més,|mes pas se- més||et loing _ _ _|_ _ _ _ _ al-|lés, par di- vers so- li-|tai- res lieux, par|
 ABcc A2 G2 | c4 z2 c2- | c2 A4 A2 | G4 F4 | G6 G2 | c4 z2 c2- | c2 A2 c2 c2 | _B4 A4 | f4 a4 | %17
w: di- vers so- li- tai- res|lieux, sont|_ de pen-|sers en-|tre- mel-|lés, qui|_ ren- dent hu-|mi- des|mes- *|
 g4 z2 c2 | g2 a2 e2 f2 | cg a2 g4 | z8 | z4 z2 g2 | cf e2 z2 d2 | c2 d2 GG c2- | cA F2 z2 z G | %25
w: yeux, et|tant plus i'ay ma|vois hau- cé- e,||et|si ne sçay quand|au- ray mieux, et si|_ ne sçay quand|
 A2 G2 c2 z c | F2 A2 G2 E2 | F4 G4- | G8 | c8 |] %30
w: i'au- ray mieux, et|si, ne sçay quand|i'au- ray|_|mieux.|

